X: 21171
T: THE RANTING LADS OF SUNDERLAND -- Hornpipe
R: hornpipe, reel
B: K\"ohler's Violin Repository, v.2, 1885 p.117 #1
F: http://www.archive.org/details/klersviolinrepos02rugg
Z: 2012 John Chambers <jc:trillian.mit.edu>
M: C|
L: 1/8
K: D
(udB) |\
(A^G)AB (AF)DF | (AB)df (gf)ed | (gb)ag (fa)gf | (e^d)ef (e=d)Bd |
(A^G)AB (AF)DF | (AB)df (gf)ed | (gb)ag (fa)gf | edfe d2 :|
|: ((3uABc) |\
d2fd (ad)fd | (bd)(bd) adfd | (gb)ag (fa)gf | (ed)gf (ed)Bd |
(A^G)AB (AF)DF | (AB)df (gf)ed | (gb)ag (fa)gf | edfe d2 :|

%%sep 2 1 500

